X: 42100
T: Wandering Road, The
R: slip jig
M: 9/8
K: Aminor
GAc ecd -dcA|dcA ded- dcA|GAc ecd -dcd|cde gae gde|
GAc ecd -dcA|dcA eAc -cdc|Acd gAe -ecd|ega c'bg -gAG|

